build/img/htmlacademy-icon.svg

<svg width="35" height="43" viewBox="0 0 35 43" fill="none" xmlns="http://www.w3.org/2000/svg">
<g filter="url(#filter0_d)">
<path d="M17.6 0H17.5L4 1.4V26.1L17.5 34.1L30.9 26.1V1.4L17.6 0ZM29 12.1L17.5 5.3V5.2H17.4L17.3 5.1V5.2L5.9 12.1V3.1L17.4 1.9L29 3.1V12.1ZM17.4 6.8L28.9 13.5L24.4 16.1L17.3 11.9V13.3L23.2 16.8L22.3 17.3L17.3 14.3V15.7L21.1 18L20.3 18.5L17.3 16.7V18.1L19.2 19.2L17.4 20.3L6 13.6L17.4 6.8ZM5.9 15.1L17.3 21.9V22.9L9.4 18.2V19.6L17.4 24.4V25.5L9.4 20.8V22.2L17.4 27L25.5 22.1V16.9L28.9 14.9V24.9L17.4 31.8L5.9 25V15.1Z" fill="black"/>
<path d="M28.7455 12.5304L29.5 12.9765V12.1V3.1V2.64906L29.0514 2.60265L17.4514 1.40265L17.3998 1.39731L17.3481 1.4027L5.84811 2.6027L5.4 2.64946V3.1V12.1V12.9871L6.1589 12.5278L17.3183 5.7734L28.7455 12.5304ZM17.6517 6.36797L17.397 6.21959L17.1439 6.37059L5.74386 13.1706L5.01863 13.6032L5.74666 14.0311L17.1467 20.7311L17.405 20.8829L17.6607 20.7266L19.4607 19.6266L20.1779 19.1884L19.4505 18.7673L17.8 17.8117V17.5831L20.0428 18.9287L20.3053 19.0863L20.565 18.924L21.365 18.424L22.0543 17.9932L21.3589 17.5723L17.8 15.4182V15.1831L22.0428 17.7287L22.2904 17.8773L22.5428 17.7371L23.4428 17.2371L24.204 16.8142L23.4551 16.37L17.8 13.0153V12.7767L24.1454 16.5303L24.397 16.6792L24.6501 16.5329L29.1501 13.9329L29.8963 13.5018L29.1517 13.068L17.6517 6.36797ZM6.15614 14.6706L5.4 14.2196V15.1V25V25.2852L5.64551 25.4304L17.1455 32.2304L17.4019 32.382L17.6572 32.2287L29.1572 25.3287L29.4 25.1831V24.9V14.9V14.0258L28.6465 14.469L25.2465 16.469L25 16.614V16.9V21.8181L17.9 26.1132V25.5V24.4V24.1169L17.6572 23.9713L9.9 19.3169V19.0793L17.0444 23.3297L17.8 23.7793V22.9V21.9V21.6161L17.5561 21.4706L6.15614 14.6706ZM17.1467 25.9311L17.6815 26.2453L17.3989 26.4163L9.9 21.9169V21.6737L17.1467 25.9311ZM4.5 1.85083L17.5259 0.5H17.5738L30.4 1.85013V25.8162L17.4991 33.5182L4.5 25.8151V1.85083Z" stroke="black"/>
</g>
<defs>
<filter id="filter0_d" x="0" y="0" width="34.9" height="42.1" filterUnits="userSpaceOnUse" color-interpolation-filters="sRGB">
<feFlood flood-opacity="0" result="BackgroundImageFix"/>
<feColorMatrix in="SourceAlpha" type="matrix" values="0 0 0 0 0 0 0 0 0 0 0 0 0 0 0 0 0 0 127 0"/>
<feOffset dy="4"/>
<feGaussianBlur stdDeviation="2"/>
<feColorMatrix type="matrix" values="0 0 0 0 0 0 0 0 0 0 0 0 0 0 0 0 0 0 0.25 0"/>
<feBlend mode="normal" in2="BackgroundImageFix" result="effect1_dropShadow"/>
<feBlend mode="normal" in="SourceGraphic" in2="effect1_dropShadow" result="shape"/>
</filter>
</defs>
</svg>

<svg width="35" height="43" fill="none" xmlns="http://www.w3.org/2000/svg"><g filter="url(#filter0_d)"><path d="M17.6 0h-.1L4 1.4v24.7l13.5 8 13.4-8V1.4L17.6 0zM29 12.1L17.5 5.3v-.1h-.1l-.1-.1v.1L5.9 12.1v-9l11.5-1.2L29 3.1v9zM17.4 6.8l11.5 6.7-4.5 2.6-7.1-4.2v1.4l5.9 3.5-.9.5-5-3v1.4l3.8 2.3-.8.5-3-1.8v1.4l1.9 1.1-1.8 1.1L6 13.6l11.4-6.8zM5.9 15.1l11.4 6.8v1l-7.9-4.7v1.4l8 4.8v1.1l-8-4.7v1.4l8 4.8 8.1-4.9v-5.2l3.4-2v10l-11.5 6.9L5.9 25v-9.9z" fill="#000"/><path d="M28.745 12.53l.755.447V2.65l-.449-.047-11.6-1.2-.051-.006-.052.006-11.5 1.2-.448.046v10.338l.759-.46 11.16-6.754 11.427 6.757zM17.652 6.368l-.255-.148-.253.15-11.4 6.8-.725.433.728.428 11.4 6.7.258.152.256-.156 1.8-1.1.717-.439-.727-.42-1.651-.956v-.229l2.243 1.346.262.157.26-.162.8-.5.69-.43-.696-.422-3.559-2.154v-.235l4.243 2.546.247.148.253-.14.9-.5.761-.423-.749-.444-5.655-3.355v-.238l6.345 3.753.252.15.253-.147 4.5-2.6.746-.431-.744-.434-11.5-6.7zM6.156 14.671L5.4 14.22v11.065l.246.145 11.5 6.8.256.152.255-.153 11.5-6.9.243-.146V14.026l-.753.443-3.4 2-.247.145v5.204l-7.1 4.295v-1.996l-.243-.146L9.9 19.317v-.238l7.144 4.25.756.45v-2.163l-.244-.145-11.4-6.8zm10.99 11.26l.535.314-.282.171-7.499-4.5v-.242l7.247 4.257zM4.5 1.851L17.526.5h.048L30.4 1.85v23.966l-12.9 7.702-13-7.703V1.851z" stroke="#000"/></g><defs><filter id="filter0_d" x="0" y="0" width="34.9" height="42.1" filterUnits="userSpaceOnUse" color-interpolation-filters="sRGB"><feFlood flood-opacity="0" result="BackgroundImageFix"/><feColorMatrix in="SourceAlpha" values="0 0 0 0 0 0 0 0 0 0 0 0 0 0 0 0 0 0 127 0"/><feOffset dy="4"/><feGaussianBlur stdDeviation="2"/><feColorMatrix values="0 0 0 0 0 0 0 0 0 0 0 0 0 0 0 0 0 0 0.25 0"/><feBlend in2="BackgroundImageFix" result="effect1_dropShadow"/><feBlend in="SourceGraphic" in2="effect1_dropShadow" result="shape"/></filter></defs></svg>
